;FLAVOR:UltiGCode
;TIME:4768
;MATERIAL:1963
;MATERIAL2:0

;Layer count: 273
;LAYER:0
M107
G0 F9000 X109.544 Y77.683 Z0.300
;TYPE:SKIRT
G1 F1200 X122.444 Y77.683 E1.54800
G1 X122.444 Y85.003 E2.42640
G1 X122.315 Y86.114 E2.56062
G1 X121.861 Y87.373 E2.72122
G1 X121.197 Y88.396 E2.86757
G1 X120.763 Y88.867 E2.94443
G1 X120.632 Y88.994 E2.96632
G1 X120.507 Y89.111 E2.98687
G1 X120.401 Y89.200 E3.00348
G1 X120.368 Y89.229 E3.00875
G1 X120.260 Y89.317 E3.02547
G1 X120.155 Y89.400 E3.04153
G1 X120.040 Y89.484 E3.05862
G1 X119.925 Y89.566 E3.07556
G1 X119.770 Y89.668 E3.09783
G1 X119.682 Y89.723 E3.11028
G1 X119.540 Y89.810 E3.13027
G1 X119.342 Y89.917 E3.15727
G1 X119.215 Y89.982 E3.17439
G1 X119.008 Y90.080 E3.20188
G1 X118.877 Y90.135 E3.21893
G1 X118.783 Y90.174 E3.23114
G1 X118.651 Y90.225 E3.24812
G1 X118.585 Y90.248 E3.25651
G1 X118.451 Y90.296 E3.27359
G1 X118.302 Y90.340 E3.29223
G1 X118.219 Y90.365 E3.30263
G1 X118.095 Y90.399 E3.31806
G1 X117.936 Y90.437 E3.33768
G1 X117.724 Y90.482 E3.36369
G1 X117.400 Y90.537 E3.40312
G1 X116.787 Y90.583 E3.47689
G1 X115.178 Y90.583 E3.66997
G1 X114.502 Y90.524 E3.75140
G1 X114.157 Y90.461 E3.79348
G1 X113.913 Y90.404 E3.82355
G1 X113.768 Y90.365 E3.84157
G1 X113.685 Y90.340 E3.85197
G1 X113.536 Y90.296 E3.87062
G1 X113.402 Y90.248 E3.88770
G1 X113.336 Y90.225 E3.89608
G1 X113.204 Y90.174 E3.91306
G1 X113.110 Y90.135 E3.92528
G1 X112.979 Y90.080 E3.94233
G1 X112.772 Y89.982 E3.96981
G1 X112.645 Y89.917 E3.98693
G1 X112.554 Y89.867 E3.99939
G1 X112.450 Y89.810 E4.01362
G1 X112.325 Y89.735 E4.03111
G1 X112.217 Y89.668 E4.04636
G1 X112.062 Y89.566 E4.06863
G1 X111.947 Y89.484 E4.08558
G1 X111.832 Y89.400 E4.10267
G1 X111.727 Y89.317 E4.11873
G1 X111.619 Y89.229 E4.13545
G1 X111.586 Y89.200 E4.14072
G1 X111.480 Y89.111 E4.15733
G1 X111.246 Y88.891 E4.19587
G1 X110.597 Y88.157 E4.31344
G1 X109.982 Y87.036 E4.46688
G1 X109.713 Y86.211 E4.57101
G1 X109.570 Y85.422 E4.66723
G1 X109.544 Y84.874 E4.73306
G1 X109.544 Y77.683 E5.59598
G0 F9000 X109.944 Y78.083
G1 F1200 X122.044 Y78.083 E7.04798
G1 X122.044 Y84.980 E7.87562
G1 X121.923 Y86.022 E8.00150
G1 X121.501 Y87.194 E8.15098
G1 X120.880 Y88.150 E8.28778
G1 X120.476 Y88.588 E8.35929
G1 X120.356 Y88.704 E8.37931
G1 X120.241 Y88.811 E8.39816
G1 X120.143 Y88.895 E8.41365
G1 X120.110 Y88.924 E8.41892
G1 X120.010 Y89.005 E8.43437
G1 X119.913 Y89.082 E8.44923
G1 X119.807 Y89.160 E8.46502
G1 X119.699 Y89.235 E8.48080
G1 X119.553 Y89.331 E8.50177
G1 X119.471 Y89.383 E8.51342
G1 X119.340 Y89.463 E8.53184
G1 X119.155 Y89.563 E8.55707
G1 X119.038 Y89.623 E8.57285
G1 X118.845 Y89.715 E8.59851
G1 X118.724 Y89.766 E8.61427
G1 X118.636 Y89.802 E8.62568
G1 X118.513 Y89.849 E8.64148
G1 X118.450 Y89.871 E8.64948
G1 X118.326 Y89.916 E8.66531
G1 X118.188 Y89.957 E8.68259
G1 X118.109 Y89.980 E8.69246
G1 X117.995 Y90.011 E8.70664
G1 X117.848 Y90.047 E8.72480
G1 X117.649 Y90.088 E8.74918
G1 X117.351 Y90.139 E8.78546
G1 X116.772 Y90.183 E8.85514
G1 X115.195 Y90.183 E9.04438
G1 X114.556 Y90.127 E9.12136
G1 X114.238 Y90.069 E9.16015
G1 X114.011 Y90.017 E9.18809
G1 X113.878 Y89.980 E9.20466
G1 X113.799 Y89.957 E9.21453
G1 X113.661 Y89.916 E9.23181
G1 X113.537 Y89.871 E9.24764
G1 X113.474 Y89.849 E9.25564
G1 X113.351 Y89.802 E9.27145
G1 X113.263 Y89.766 E9.28285
G1 X113.142 Y89.715 E9.29861
G1 X112.949 Y89.623 E9.32427
G1 X112.832 Y89.563 E9.34005
G1 X112.746 Y89.517 E9.35175
G1 X112.649 Y89.463 E9.36507
G1 X112.533 Y89.394 E9.38127
G1 X112.434 Y89.331 E9.39535
G1 X112.288 Y89.235 E9.41632
G1 X112.180 Y89.160 E9.43210
G1 X112.074 Y89.082 E9.44789
G1 X111.977 Y89.005 E9.46275
G1 X111.877 Y88.924 E9.47819
G1 X111.844 Y88.895 E9.48347
G1 X111.746 Y88.811 E9.49895
G1 X111.533 Y88.612 E9.53393
G1 X110.926 Y87.925 E9.64394
G1 X110.350 Y86.876 E9.78755
G1 X110.101 Y86.113 E9.88386
G1 X109.969 Y85.377 E9.97359
G1 X109.944 Y84.864 E10.03523
G1 X109.944 Y78.083 E10.84895
G0 F9000 X110.344 Y78.483
G1 F1200 X121.644 Y78.483 E12.20495
G1 X121.644 Y84.957 E12.98183
G1 X121.531 Y85.930 E13.09937
G1 X121.140 Y87.015 E13.23777
G1 X120.563 Y87.904 E13.36495
G1 X120.190 Y88.308 E13.43093
G1 X120.080 Y88.414 E13.44926
G1 X119.975 Y88.512 E13.46650
G1 X119.926 Y88.554 E13.47424
G1 X119.852 Y88.618 E13.48598
G1 X119.760 Y88.693 E13.50023
G1 X119.670 Y88.763 E13.51391
G1 X119.573 Y88.835 E13.52840
G1 X119.474 Y88.905 E13.54295
G1 X119.337 Y88.995 E13.56262
G1 X119.260 Y89.043 E13.57351
G1 X119.141 Y89.116 E13.59027
G1 X118.969 Y89.209 E13.61373
G1 X118.861 Y89.265 E13.62833
G1 X118.682 Y89.349 E13.65206
G1 X118.570 Y89.396 E13.66663
G1 X118.488 Y89.430 E13.67728
G1 X118.375 Y89.473 E13.69179
G1 X118.315 Y89.495 E13.69946
G1 X118.200 Y89.536 E13.71411
G1 X118.074 Y89.573 E13.72987
G1 X118.000 Y89.595 E13.73913
G1 X117.894 Y89.624 E13.75232
G1 X117.760 Y89.657 E13.76888
G1 X117.575 Y89.695 E13.79155
G1 X117.302 Y89.742 E13.82479
G1 X116.757 Y89.783 E13.89037
G1 X115.213 Y89.783 E14.07565
G1 X114.609 Y89.730 E14.14841
G1 X114.319 Y89.677 E14.18379
G1 X114.109 Y89.629 E14.20964
G1 X113.987 Y89.595 E14.22483
G1 X113.913 Y89.573 E14.23410
G1 X113.787 Y89.536 E14.24986
G1 X113.672 Y89.495 E14.26451
G1 X113.612 Y89.473 E14.27218
G1 X113.499 Y89.430 E14.28669
G1 X113.417 Y89.396 E14.29734
G1 X113.305 Y89.349 E14.31191
G1 X113.126 Y89.265 E14.33564
G1 X113.018 Y89.209 E14.35024
G1 X112.938 Y89.166 E14.36114
G1 X112.849 Y89.116 E14.37339
G1 X112.742 Y89.053 E14.38829
G1 X112.650 Y88.995 E14.40134
G1 X112.513 Y88.905 E14.42101
G1 X112.414 Y88.835 E14.43556
G1 X112.317 Y88.763 E14.45006
G1 X112.227 Y88.693 E14.46374
G1 X112.135 Y88.618 E14.47798
G1 X112.061 Y88.554 E14.48972
G1 X112.012 Y88.512 E14.49747
G1 X111.820 Y88.333 E14.52897
G1 X111.256 Y87.694 E14.63124
G1 X110.719 Y86.717 E14.76502
G1 X110.490 Y86.015 E14.85363
G1 X110.367 Y85.332 E14.93691
G1 X110.344 Y84.855 E14.99422
G1 X110.344 Y78.483 E15.75886
G0 F9000 X110.744 Y78.883
G1 F1200 X121.244 Y78.883 E17.01886
G1 X121.244 Y84.934 E17.74498
G1 X121.139 Y85.838 E17.85419
G1 X120.779 Y86.836 E17.98150
G1 X120.246 Y87.658 E18.09906
G1 X119.904 Y88.028 E18.15952
G1 X119.805 Y88.124 E18.17607
G1 X119.710 Y88.213 E18.19169
G1 X119.627 Y88.283 E18.20472
G1 X119.594 Y88.312 E18.20999
G1 X119.510 Y88.380 E18.22296
G1 X119.428 Y88.445 E18.23552
G1 X119.339 Y88.511 E18.24882
G1 X119.249 Y88.574 E18.26200
G1 X119.121 Y88.658 E18.28037
G1 X119.050 Y88.703 E18.29046
G1 X118.941 Y88.769 E18.30575
G1 X118.782 Y88.855 E18.32744
G1 X118.684 Y88.906 E18.34070
G1 X118.518 Y88.984 E18.36271
G1 X118.417 Y89.027 E18.37588
G1 X118.340 Y89.058 E18.38584
G1 X118.237 Y89.098 E18.39910
G1 X118.160 Y89.125 E18.40889
G1 X118.075 Y89.155 E18.41971
G1 X117.961 Y89.190 E18.43402
G1 X117.891 Y89.210 E18.44276
G1 X117.794 Y89.237 E18.45484
G1 X117.672 Y89.267 E18.46991
G1 X117.501 Y89.302 E18.49086
G1 X117.253 Y89.344 E18.52104
G1 X116.742 Y89.383 E18.58254
G1 X115.230 Y89.383 E18.76398
G1 X114.663 Y89.334 E18.83228
G1 X114.400 Y89.286 E18.86436
G1 X114.208 Y89.241 E18.88802
G1 X114.096 Y89.210 E18.90197
G1 X114.026 Y89.190 E18.91070
G1 X113.912 Y89.155 E18.92501
G1 X113.827 Y89.125 E18.93583
G1 X113.750 Y89.098 E18.94562
G1 X113.647 Y89.058 E18.95888
G1 X113.570 Y89.027 E18.96884
G1 X113.469 Y88.984 E18.98201
G1 X113.303 Y88.906 E19.00402
G1 X113.205 Y88.855 E19.01728
G1 X113.130 Y88.815 E19.02748
G1 X113.048 Y88.769 E19.03876
G1 X112.951 Y88.711 E19.05232
G1 X112.866 Y88.658 E19.06435
G1 X112.738 Y88.574 E19.08272
G1 X112.648 Y88.511 E19.09590
G1 X112.559 Y88.445 E19.10920
G1 X112.477 Y88.380 E19.12175
G1 X112.393 Y88.312 E19.13472
G1 X112.360 Y88.283 E19.13999
G1 X112.277 Y88.213 E19.15302
G1 X112.107 Y88.054 E19.18096
G1 X111.585 Y87.462 E19.27567
G1 X111.088 Y86.557 E19.39957
G1 X110.879 Y85.917 E19.48036
G1 X110.765 Y85.286 E19.55730
G1 X110.744 Y84.845 E19.61028
G1 X110.744 Y78.883 E20.32572
G0 F9000 X111.144 Y79.283
G1 F1200 X120.844 Y79.283 E21.48972
G1 X120.844 Y84.910 E22.16496
G1 X120.747 Y85.746 E22.26596
G1 X120.419 Y86.657 E22.38215
G1 X119.929 Y87.411 E22.49005
G1 X119.618 Y87.749 E22.54517
G1 X119.529 Y87.834 E22.55994
G1 X119.444 Y87.914 E22.57395
G1 X119.399 Y87.952 E22.58101
G1 X119.336 Y88.006 E22.59097
G1 X119.260 Y88.068 E22.60274
G1 X119.186 Y88.127 E22.61410
G1 X119.105 Y88.186 E22.62612
G1 X119.024 Y88.243 E22.63801
G1 X118.905 Y88.322 E22.65515
G1 X118.839 Y88.363 E22.66447
G1 X118.741 Y88.423 E22.67826
G1 X118.596 Y88.501 E22.69802
G1 X118.507 Y88.547 E22.71004
G1 X118.355 Y88.619 E22.73022
G1 X118.263 Y88.658 E22.74222
G1 X118.192 Y88.687 E22.75142
G1 X118.099 Y88.722 E22.76334
G1 X118.044 Y88.741 E22.77033
G1 X118.044 Y88.742 E22.77045
G1 X117.950 Y88.775 E22.78240
G1 X117.847 Y88.806 E22.79531
G1 X117.782 Y88.825 E22.80344
G1 X117.693 Y88.850 E22.81453
G1 X117.584 Y88.876 E22.82798
G1 X117.427 Y88.909 E22.84723
G1 X117.204 Y88.947 E22.87437
G1 X116.727 Y88.983 E22.93178
G1 X115.247 Y88.983 E23.10938
G1 X114.716 Y88.937 E23.17333
G1 X114.482 Y88.894 E23.20188
G1 X114.306 Y88.853 E23.22357
G1 X114.205 Y88.825 E23.23615
G1 X114.140 Y88.806 E23.24427
G1 X114.037 Y88.775 E23.25718
G1 X113.943 Y88.742 E23.26914
G1 X113.943 Y88.741 E23.26926
G1 X113.888 Y88.722 E23.27624
G1 X113.795 Y88.687 E23.28816
G1 X113.724 Y88.658 E23.29737
G1 X113.632 Y88.619 E23.30936
G1 X113.480 Y88.547 E23.32954
G1 X113.391 Y88.501 E23.34156
G1 X113.323 Y88.464 E23.35085
G1 X113.247 Y88.422 E23.36127
G1 X113.159 Y88.370 E23.37354
G1 X113.082 Y88.322 E23.38443
G1 X112.963 Y88.243 E23.40157
G1 X112.882 Y88.186 E23.41345
G1 X112.801 Y88.127 E23.42548
G1 X112.727 Y88.068 E23.43683
G1 X112.651 Y88.006 E23.44860
G1 X112.588 Y87.952 E23.45856
G1 X112.543 Y87.914 E23.46563
G1 X112.394 Y87.775 E23.49008
G1 X111.914 Y87.231 E23.57714
G1 X111.456 Y86.397 E23.69132
G1 X111.268 Y85.819 E23.76425
G1 X111.163 Y85.241 E23.83475
G1 X111.144 Y84.836 E23.88340
G1 X111.144 Y79.283 E24.54976
G0 F9000 X111.544 Y79.683
G1 F1200 X120.444 Y79.683 E25.61776
G1 X120.444 Y84.887 E26.24224
G1 X120.355 Y85.653 E26.33478
G1 X120.058 Y86.478 E26.44000
G1 X119.612 Y87.165 E26.53829
G1 X119.331 Y87.469 E26.58797
G1 X119.253 Y87.544 E26.60095
G1 X119.178 Y87.615 E26.61335
G1 X119.111 Y87.672 E26.62390
G1 X119.079 Y87.700 E26.62900
G1 X119.011 Y87.756 E26.63957
G1 X118.943 Y87.808 E26.64985
G1 X118.871 Y87.861 E26.66058
G1 X118.799 Y87.913 E26.67123
G1 X118.688 Y87.985 E26.68711
G1 X118.628 Y88.023 E26.69563
G1 X118.542 Y88.076 E26.70776
G1 X118.409 Y88.148 E26.72590
G1 X118.330 Y88.188 E26.73653
G1 X118.192 Y88.254 E26.75489
G1 X118.110 Y88.288 E26.76554
G1 X118.045 Y88.315 E26.77398
G1 X117.962 Y88.347 E26.78466
G1 X117.896 Y88.370 E26.79305
G1 X117.825 Y88.395 E26.80208
G1 X117.733 Y88.423 E26.81362
G1 X117.672 Y88.441 E26.82125
G1 X117.593 Y88.463 E26.83109
G1 X117.496 Y88.486 E26.84305
G1 X117.352 Y88.516 E26.86071
G1 X117.156 Y88.550 E26.88458
G1 X116.712 Y88.583 E26.93800
G1 X115.265 Y88.583 E27.11164
G1 X114.769 Y88.540 E27.17139
G1 X114.563 Y88.502 E27.19652
G1 X114.404 Y88.465 E27.21611
G1 X114.315 Y88.441 E27.22718
G1 X114.254 Y88.423 E27.23481
G1 X114.162 Y88.395 E27.24635
G1 X114.091 Y88.370 E27.25538
G1 X114.025 Y88.347 E27.26377
G1 X113.942 Y88.315 E27.27444
G1 X113.877 Y88.288 E27.28289
G1 X113.795 Y88.254 E27.29354
G1 X113.657 Y88.188 E27.31190
G1 X113.578 Y88.148 E27.32252
G1 X113.515 Y88.114 E27.33111
G1 X113.447 Y88.076 E27.34046
G1 X113.368 Y88.029 E27.35149
G1 X113.299 Y87.985 E27.36131
G1 X113.188 Y87.913 E27.37719
G1 X113.116 Y87.861 E27.38785
G1 X113.044 Y87.808 E27.39858
G1 X112.976 Y87.756 E27.40885
G1 X112.908 Y87.700 E27.41942
G1 X112.876 Y87.672 E27.42452
G1 X112.809 Y87.615 E27.43508
G1 X112.682 Y87.496 E27.45596
G1 X112.243 Y86.999 E27.53554
G1 X111.825 Y86.238 E27.63973
G1 X111.657 Y85.721 E27.70496
G1 X111.562 Y85.196 E27.76898
G1 X111.544 Y84.826 E27.81343
G1 X111.544 Y79.683 E28.43059
G0 F9000 X111.944 Y80.083
G1 F1200 X120.044 Y80.083 E29.40259
G1 X120.044 Y84.864 E29.97631
G1 X119.963 Y85.561 E30.06052
G1 X119.697 Y86.299 E30.15465
G1 X119.295 Y86.919 E30.24332
G1 X119.045 Y87.190 E30.28757
G1 X118.978 Y87.255 E30.29877
G1 X118.912 Y87.316 E30.30956
G1 X118.853 Y87.366 E30.31884
G1 X118.821 Y87.394 E30.32394
G1 X118.761 Y87.443 E30.33323
G1 X118.701 Y87.490 E30.34238
G1 X118.637 Y87.537 E30.35191
G1 X118.573 Y87.582 E30.36130
G1 X118.472 Y87.649 E30.37584
G1 X118.418 Y87.683 E30.38350
G1 X118.342 Y87.729 E30.39416
G1 X118.223 Y87.794 E30.41043
G1 X118.153 Y87.830 E30.41988
G1 X118.029 Y87.888 E30.43630
G1 X117.956 Y87.919 E30.44582
G1 X117.897 Y87.943 E30.45346
G1 X117.824 Y87.971 E30.46285
G1 X117.774 Y87.988 E30.46918
G1 X117.774 Y87.989 E30.46930
G1 X117.700 Y88.015 E30.47872
G1 X117.620 Y88.039 E30.48874
G1 X117.563 Y88.056 E30.49588
G1 X117.493 Y88.075 E30.50458
G1 X117.408 Y88.096 E30.51509
G1 X117.278 Y88.123 E30.53102
G1 X117.107 Y88.152 E30.55183
G1 X116.697 Y88.183 E30.60117
G1 X115.282 Y88.183 E30.77097
G1 X114.823 Y88.143 E30.82626
G1 X114.644 Y88.110 E30.84810
G1 X114.502 Y88.077 E30.86560
G1 X114.424 Y88.056 E30.87529
G1 X114.367 Y88.039 E30.88243
G1 X114.287 Y88.015 E30.89245
G1 X114.213 Y87.989 E30.90186
G1 X114.213 Y87.988 E30.90198
G1 X114.163 Y87.971 E30.90832
G1 X114.090 Y87.943 E30.91770
G1 X114.031 Y87.919 E30.92535
G1 X113.958 Y87.888 E30.93486
G1 X113.834 Y87.830 E30.95129
G1 X113.764 Y87.794 E30.96074
G1 X113.707 Y87.763 E30.96852
G1 X113.646 Y87.729 E30.97690
G1 X113.577 Y87.688 E30.98654
G1 X113.515 Y87.649 E30.99532
G1 X113.414 Y87.582 E31.00987
G1 X113.350 Y87.537 E31.01926
G1 X113.286 Y87.490 E31.02879
G1 X113.226 Y87.443 E31.03793
G1 X113.166 Y87.394 E31.04723
G1 X113.115 Y87.350 E31.05531
G1 X113.075 Y87.316 E31.06161
G1 X112.969 Y87.217 E31.07902
G1 X112.573 Y86.768 E31.15086
G1 X112.194 Y86.078 E31.24533
G1 X112.045 Y85.623 E31.30278
G1 X111.960 Y85.151 E31.36033
G1 X111.944 Y84.816 E31.40058
G1 X111.944 Y80.083 E31.96854
G0 F9000 X112.344 Y80.483
G1 F1200 X119.644 Y80.483 E32.84454
G1 X119.644 Y84.841 E33.36750
G1 X119.571 Y85.469 E33.44336
G1 X119.337 Y86.120 E33.52638
G1 X118.978 Y86.673 E33.60549
G1 X118.759 Y86.910 E33.64422
G1 X118.702 Y86.965 E33.65372
G1 X118.646 Y87.017 E33.66289
G1 X118.609 Y87.049 E33.66876
G1 X118.563 Y87.089 E33.67608
G1 X118.511 Y87.131 E33.68410
G1 X118.459 Y87.172 E33.69204
G1 X118.404 Y87.212 E33.70021
G1 X118.348 Y87.252 E33.70846
G1 X118.256 Y87.312 E33.72164
G1 X118.207 Y87.343 E33.72860
G1 X118.143 Y87.382 E33.73760
G1 X118.036 Y87.440 E33.75220
G1 X117.976 Y87.471 E33.76030
G1 X117.865 Y87.523 E33.77501
G1 X117.803 Y87.549 E33.78308
G1 X117.749 Y87.571 E33.79008
G1 X117.686 Y87.596 E33.79821
G1 X117.631 Y87.615 E33.80520
G1 X117.575 Y87.635 E33.81233
G1 X117.506 Y87.656 E33.82099
G1 X117.454 Y87.671 E33.82748
G1 X117.392 Y87.688 E33.83519
G1 X117.320 Y87.706 E33.84410
G1 X117.204 Y87.730 E33.85832
G1 X117.058 Y87.755 E33.87609
G1 X116.682 Y87.783 E33.92134
G1 X115.300 Y87.783 E34.08718
G1 X114.876 Y87.746 E34.13825
G1 X114.725 Y87.718 E34.15668
G1 X114.600 Y87.690 E34.17205
G1 X114.533 Y87.671 E34.18041
G1 X114.481 Y87.656 E34.18690
G1 X114.412 Y87.635 E34.19556
G1 X114.356 Y87.615 E34.20269
G1 X114.301 Y87.596 E34.20967
G1 X114.238 Y87.571 E34.21781
G1 X114.184 Y87.549 E34.22480
G1 X114.122 Y87.523 E34.23287
G1 X114.011 Y87.471 E34.24758
G1 X113.951 Y87.440 E34.25569
G1 X113.899 Y87.412 E34.26277
G1 X113.846 Y87.382 E34.27008
G1 X113.785 Y87.346 E34.27858
G1 X113.731 Y87.312 E34.28624
G1 X113.639 Y87.252 E34.29942
G1 X113.583 Y87.212 E34.30768
G1 X113.528 Y87.172 E34.31584
G1 X113.476 Y87.131 E34.32378
G1 X113.424 Y87.089 E34.33181
G1 X113.378 Y87.049 E34.33912
G1 X113.341 Y87.017 E34.34499
G1 X113.256 Y86.938 E34.35892
G1 X112.902 Y86.537 E34.42310
G1 X112.562 Y85.918 E34.50785
G1 X112.434 Y85.525 E34.55745
G1 X112.358 Y85.105 E34.60867
G1 X112.344 Y84.807 E34.64447
G1 X112.344 Y80.483 E35.16335
G0 F9000 X112.744 Y80.883
G1 F1200 X119.244 Y80.883 E35.94335
G1 X119.244 Y84.818 E36.41555
G1 X119.179 Y85.377 E36.48308
G1 X118.976 Y85.941 E36.55501
G1 X118.661 Y86.426 E36.62441
G1 X118.472 Y86.630 E36.65778
G1 X118.426 Y86.675 E36.66550
G1 X118.381 Y86.718 E36.67297
