;FLAVOR:UltiGCode
;TIME:4059
;MATERIAL:8580
;MATERIAL2:0
;NOZZLE_DIAMETER:0.4
;Generated with Cura_SteamEngine master

;LAYER_COUNT:59
;LAYER:0
M107
G10
G0 F2400 X88.915 Y67.705 Z.3
;TYPE:SKIRT
G11
G1 F1800 X89.398 Y67.081 E0.09469
G1 X89.941 Y66.508 E0.18942
G1 X90.54 Y65.993 E0.28422
G1 X91.188 Y65.542 E0.37895
G1 X91.879 Y65.158 E0.47382
G1 X92.446 Y64.907 E0.54823
G1 X93.769 Y64.383 E0.71899
G1 X94.517 Y64.13 E0.81374
G1 X95.525 Y63.915 E0.93742
G1 X96.459 Y63.78 E1.05067
G1 X97.574 Y63.7 E1.18481
G1 X142.89 Y63.695 E6.62273
G1 X143.99 Y63.773 E6.75506
G1 X145.241 Y63.951 E6.90669
G1 X146.016 Y64.101 E7.00142
G1 X146.772 Y64.33 E7.09621
G1 X147.149 Y64.476 E7.14473
G1 X148.317 Y64.964 E7.29663
G1 X149.029 Y65.305 E7.39136
G1 X149.703 Y65.716 E7.48609
G1 X150.034 Y65.954 E7.53501
G1 X151.051 Y66.728 E7.68838
G1 X151.654 Y67.238 E7.78315
G1 X152.453 Y68.107 E7.92481
G1 X153.23 Y69.093 E8.07545
G1 X153.687 Y69.737 E8.17021
G1 X154.076 Y70.424 E8.26495
G1 X154.345 Y71.021 E8.34353
G1 X154.937 Y72.499 E8.53458
G1 X155.193 Y73.246 E8.62934
G1 X155.372 Y74.015 E8.72409
G1 X155.436 Y74.432 E8.77471
G1 X155.552 Y75.36 E8.88694
G1 X155.612 Y76.33 E9.00356
G1 X155.593 Y127.978 E15.20132
G1 X155.553 Y128.767 E15.29613
G1 X155.45 Y129.46 E15.3802
G1 X155.269 Y130.393 E15.49425
G1 X155.08 Y131.16 E15.58904
G1 X154.757 Y132.036 E15.70108
G1 X154.25 Y133.194 E15.85277
G1 X153.897 Y133.901 E15.9476
G1 X153.475 Y134.568 E16.04231
G1 X153.231 Y134.894 E16.09118
G1 X152.454 Y135.88 E16.24182
G1 X151.935 Y136.474 E16.33648
G1 X151.053 Y137.258 E16.47809
G1 X150.039 Y138.03 E16.63102
G1 X149.387 Y138.476 E16.72581
G1 X148.694 Y138.854 E16.82054
G1 X148.326 Y139.019 E16.86893
G1 X147.153 Y139.51 E17.02153
G1 X146.41 Y139.778 E17.11631
G1 X145.644 Y139.969 E17.21105
G1 X145.241 Y140.037 E17.26009
G1 X143.992 Y140.215 E17.41148
G1 X142.887 Y140.293 E17.54441
G1 X97.267 Y140.264 E23.01881
G1 X96.478 Y140.224 E23.11362
G1 X95.683 Y140.1 E23.21017
G1 X94.746 Y139.905 E23.32502
G1 X93.982 Y139.706 E23.41976
G1 X93.238 Y139.428 E23.51507
G1 X92.221 Y138.988 E23.64804
G1 X91.513 Y138.638 E23.74281
G1 X90.844 Y138.218 E23.8376
G1 X90.221 Y137.733 E23.93235
G1 X89.65 Y137.187 E24.02715
G1 X89.137 Y136.587 E24.12188
G1 X88.688 Y135.938 E24.21658
G1 X88.306 Y135.246 E24.31143
G1 X87.997 Y134.52 E24.40612
G1 X87.762 Y133.766 E24.50089
G1 X87.605 Y132.992 E24.59566
G1 X87.518 Y131.829 E24.73561
G1 X87.518 Y72.159 E31.89601
G1 X87.558 Y71.37 E31.99081
G1 X87.677 Y70.59 E32.08549
G1 X87.875 Y69.825 E32.18032
G1 X88.149 Y69.085 E32.27501
G1 X88.497 Y68.376 E32.36979
G1 X88.915 Y67.705 E32.46465
G0 F2400 X89.312 Y67.836
G1 F1800 X89.793 Y67.236 E32.55693
G1 X90.334 Y66.689 E32.64925
G1 X90.929 Y66.201 E32.7416
G1 X91.571 Y65.778 E32.83386
G1 X92.593 Y65.279 E32.97033
G1 X93.916 Y64.755 E33.14109
G1 X94.645 Y64.509 E33.23342
G1 X95.582 Y64.311 E33.34834
G1 X96.516 Y64.176 E33.46159
G1 X97.574 Y64.1 E33.58887
G1 X142.89 Y64.095 E39.0268
G1 X143.933 Y64.169 E39.15227
G1 X145.184 Y64.347 E39.3039
G1 X145.939 Y64.495 E39.39623
G1 X146.995 Y64.845 E39.52972
G1 X148.163 Y65.333 E39.68163
G1 X148.856 Y65.666 E39.77389
G1 X149.792 Y66.272 E39.90769
G1 X150.809 Y67.046 E40.06106
G1 X151.396 Y67.543 E40.15336
G1 X152.139 Y68.355 E40.28543
G1 X152.916 Y69.341 E40.43607
G1 X153.36 Y69.969 E40.52837
G1 X153.737 Y70.64 E40.62073
G1 X153.973 Y71.17 E40.69035
G1 X154.565 Y72.648 E40.8814
G1 X154.814 Y73.375 E40.97362
G1 X155.039 Y74.481 E41.10906
G1 X155.155 Y75.409 E41.22128
G1 X155.212 Y76.33 E41.33202
G1 X155.193 Y127.978 E47.52978
G1 X155.153 Y128.746 E47.62206
G1 X155.058 Y129.384 E47.69947
G1 X154.877 Y130.317 E47.81351
G1 X154.691 Y131.064 E47.90589
G1 X154.391 Y131.876 E48.00977
G1 X153.884 Y133.034 E48.16146
G1 X153.539 Y133.722 E48.25382
G1 X152.917 Y134.646 E48.38748
G1 X152.14 Y135.632 E48.53813
G1 X151.633 Y136.211 E48.63048
G1 X150.811 Y136.94 E48.76232
G1 X149.797 Y137.712 E48.91525
G1 X149.161 Y138.145 E49.00758
G1 X148.171 Y138.65 E49.14095
G1 X146.998 Y139.141 E49.29354
G1 X146.274 Y139.401 E49.38585
G1 X145.185 Y139.641 E49.51967
G1 X143.936 Y139.819 E49.67106
G1 X142.887 Y139.893 E49.79726
G1 X97.267 Y139.864 E55.27166
G1 X96.499 Y139.824 E55.36394
G1 X95.764 Y139.709 E55.45321
G1 X94.827 Y139.514 E55.56806
G1 X94.083 Y139.318 E55.66039
G1 X93.397 Y139.061 E55.7483
G1 X92.38 Y138.621 E55.88127
G1 X91.691 Y138.279 E55.97357
G1 X91.041 Y137.868 E56.06586
G1 X90.437 Y137.391 E56.15822
G1 X89.886 Y136.854 E56.25054
G1 X89.394 Y136.263 E56.34282
G1 X88.965 Y135.624 E56.43518
G1 X88.606 Y134.944 E56.52745
G1 X88.319 Y134.231 E56.61968
G1 X88.107 Y133.491 E56.71206
G1 X87.974 Y132.734 E56.80429
G1 X87.918 Y131.829 E56.9131
G1 X87.918 Y72.159 E64.0735
G1 X87.958 Y71.391 E64.16578
G1 X88.077 Y70.631 E64.25809
G1 X88.275 Y69.888 E64.35036
G1 X88.549 Y69.169 E64.4427
G1 X88.896 Y68.483 E64.53495
G1 X89.312 Y67.836 E64.62725
G0 F2400 X89.71 Y67.97
G1 F1800 X90.189 Y67.396 E64.71697
G1 X90.726 Y66.875 E64.80675
G1 X91.316 Y66.416 E64.89645
G1 X91.952 Y66.021 E64.98629
G1 X92.74 Y65.651 E65.09076
G1 X94.063 Y65.127 E65.26152
G1 X94.773 Y64.889 E65.35138
G1 X95.64 Y64.707 E65.45768
G1 X96.574 Y64.572 E65.57093
G1 X97.574 Y64.5 E65.69124
G1 X142.89 Y64.495 E71.12916
G1 X143.877 Y64.565 E71.2479
G1 X145.128 Y64.743 E71.39953
G1 X145.862 Y64.888 E71.48931
G1 X146.841 Y65.214 E71.61313
G1 X148.009 Y65.702 E71.76504
G1 X148.682 Y66.027 E71.85472
G1 X149.549 Y66.591 E71.97884
G1 X150.566 Y67.365 E72.1322
G1 X151.137 Y67.849 E72.22202
G1 X151.825 Y68.602 E72.34442
G1 X152.602 Y69.588 E72.49506
G1 X153.033 Y70.2 E72.58489
G1 X153.396 Y70.854 E72.67465
G1 X153.602 Y71.318 E72.73557
G1 X154.194 Y72.796 E72.92663
G1 X154.435 Y73.505 E73.01649
G1 X154.642 Y74.531 E73.14209
G1 X154.758 Y75.459 E73.25431
G1 X154.812 Y76.33 E73.35903
G1 X154.793 Y127.978 E79.55679
G1 X154.753 Y128.725 E79.64656
G1 X154.665 Y129.308 E79.71732
G1 X154.484 Y130.241 E79.83136
G1 X154.302 Y130.967 E79.92118
G1 X154.024 Y131.715 E80.01694
G1 X153.517 Y132.873 E80.16863
G1 X153.181 Y133.542 E80.25847
G1 X152.603 Y134.399 E80.38251
G1 X151.826 Y135.385 E80.53316
G1 X151.332 Y135.947 E80.62295
G1 X150.568 Y136.622 E80.74528
G1 X149.554 Y137.394 E80.89821
G1 X148.936 Y137.814 E80.98788
G1 X148.017 Y138.281 E81.11158
G1 X146.844 Y138.772 E81.26418
G1 X146.139 Y139.024 E81.35402
G1 X145.129 Y139.245 E81.47809
G1 X143.88 Y139.423 E81.62948
G1 X142.888 Y139.493 E81.74882
G1 X97.268 Y139.464 E87.22322
G1 X96.521 Y139.424 E87.31299
G1 X95.846 Y139.317 E87.395
G1 X94.909 Y139.122 E87.50985
G1 X94.186 Y138.931 E87.59958
G1 X93.555 Y138.694 E87.68047
G1 X92.538 Y138.254 E87.81344
G1 X91.869 Y137.92 E87.90317
G1 X91.238 Y137.517 E87.99301
G1 X90.655 Y137.05 E88.08265
G1 X90.124 Y136.522 E88.17251
G1 X89.653 Y135.941 E88.26226
G1 X89.247 Y135.313 E88.352
G1 X88.91 Y134.645 E88.44178
G1 X88.646 Y133.945 E88.53156
G1 X88.458 Y133.221 E88.62132
G1 X88.348 Y132.481 E88.7111
G1 X88.318 Y131.829 E88.78942
G1 X88.318 Y72.159 E95.94982
G1 X88.358 Y71.412 E96.03959
G1 X88.477 Y70.674 E96.12929
G1 X88.675 Y69.952 E96.21913
G1 X88.948 Y69.256 E96.30884
G1 X89.295 Y68.593 E96.39864
G1 X89.71 Y67.97 E96.48847
G0 F2400 X90.107 Y68.109
G1 F1800 X90.583 Y67.561 E96.57557
G1 X91.117 Y67.068 E96.66279
G1 X91.702 Y66.638 E96.74991
G1 X92.331 Y66.274 E96.83712
G1 X92.888 Y66.023 E96.91043
G1 X94.211 Y65.499 E97.08119
G1 X94.9 Y65.269 E97.16836
G1 X95.697 Y65.103 E97.26605
G1 X96.631 Y64.968 E97.37929
G1 X97.574 Y64.9 E97.49275
G1 X142.89 Y64.895 E102.93067
G1 X143.821 Y64.961 E103.04267
G1 X145.072 Y65.139 E103.1943
G1 X145.784 Y65.281 E103.28142
G1 X146.686 Y65.583 E103.39557
G1 X147.854 Y66.071 E103.54747
G1 X148.508 Y66.388 E103.63468
G1 X149.307 Y66.909 E103.74915
G1 X150.324 Y67.683 E103.90251
G1 X150.877 Y68.154 E103.98968
G1 X151.511 Y68.85 E104.10265
G1 X152.288 Y69.836 E104.2533
G1 X152.705 Y70.43 E104.34039
G1 X153.055 Y71.067 E104.42761
G1 X153.231 Y71.467 E104.48005
G1 X153.823 Y72.945 E104.67111
G1 X154.055 Y73.633 E104.75823
G1 X154.245 Y74.58 E104.87414
G1 X154.361 Y75.508 E104.98636
G1 X154.412 Y76.329 E105.08507
G1 X154.393 Y127.977 E111.28283
G1 X154.353 Y128.703 E111.37009
G1 X154.272 Y129.232 E111.43431
G1 X154.091 Y130.165 E111.54835
G1 X153.914 Y130.869 E111.63546
G1 X153.658 Y131.555 E111.72333
G1 X153.151 Y132.713 E111.87502
G1 X152.823 Y133.361 E111.96218
G1 X152.289 Y134.151 E112.0766
G1 X151.512 Y135.137 E112.22725
G1 X151.032 Y135.682 E112.3144
G1 X150.326 Y136.303 E112.42723
G1 X149.312 Y137.075 E112.58016
G1 X148.711 Y137.483 E112.66733
G1 X147.862 Y137.912 E112.78147
G1 X146.689 Y138.403 E112.93407
G1 X146.005 Y138.646 E113.02117
G1 X145.072 Y138.849 E113.13575
G1 X143.823 Y139.027 E113.28715
G1 X142.888 Y139.093 E113.39963
G1 X97.268 Y139.064 E118.87403
G1 X96.543 Y139.024 E118.96116
G1 X95.927 Y138.926 E119.03601
G1 X94.99 Y138.731 E119.15086
G1 X94.288 Y138.544 E119.23804
G1 X93.714 Y138.326 E119.31172
G1 X92.697 Y137.886 E119.44469
G1 X92.048 Y137.562 E119.53174
G1 X91.437 Y137.168 E119.61898
G1 X90.874 Y136.709 E119.70614
G1 X90.365 Y136.191 E119.79329
G1 X89.916 Y135.62 E119.88046
G1 X89.532 Y135.004 E119.96757
G1 X89.218 Y134.349 E120.05473
G1 X88.978 Y133.663 E120.14194
G1 X88.815 Y132.955 E120.22913
G1 X88.73 Y132.234 E120.31624
G1 X88.718 Y131.829 E120.36487
G1 X88.718 Y72.159 E127.52527
G1 X88.758 Y71.434 E127.6124
G1 X88.877 Y70.717 E127.69962
G1 X89.075 Y70.018 E127.7868
G1 X89.348 Y69.345 E127.87395
G1 X89.693 Y68.706 E127.96109
G1 X90.107 Y68.109 E128.04827
G0 F2400 X90.503 Y68.253
G1 F1800 X90.977 Y67.732 E128.13279
G1 X91.507 Y67.268 E128.21732
G1 X92.086 Y66.868 E128.30177
G1 X92.707 Y66.536 E128.38627
G1 X93.035 Y66.395 E128.42911
G1 X94.358 Y65.871 E128.59987
G1 X95.026 Y65.649 E128.68434
G1 X95.754 Y65.499 E128.77354
G1 X96.688 Y65.364 E128.88678
G1 X97.574 Y65.3 E128.99338
G1 X142.89 Y65.295 E134.4313
G1 X143.764 Y65.357 E134.53644
G1 X145.015 Y65.535 E134.68808
G1 X145.706 Y65.673 E134.77263
G1 X146.532 Y65.952 E134.87725
G1 X147.7 Y66.44 E135.02916
G1 X148.333 Y66.748 E135.11363
G1 X149.065 Y67.227 E135.21861
G1 X150.082 Y68.001 E135.37197
G1 X150.617 Y68.459 E135.45648
G1 X151.197 Y69.098 E135.56004
G1 X151.974 Y70.084 E135.71068
G1 X152.377 Y70.66 E135.79504
G1 X152.713 Y71.279 E135.87956
G1 X152.859 Y71.616 E135.92363
G1 X153.451 Y73.094 E136.11469
G1 X153.676 Y73.761 E136.19916
G1 X153.848 Y74.63 E136.30546
G1 X153.964 Y75.558 E136.41769
G1 X154.012 Y76.329 E136.51039
G1 X153.993 Y127.977 E142.70815
G1 X153.953 Y128.68 E142.79264
G1 X153.88 Y129.156 E142.85043
G1 X153.699 Y130.089 E142.96448
G1 X153.525 Y130.771 E143.04894
G1 X153.291 Y131.395 E143.12891
G1 X152.784 Y132.553 E143.28061
G1 X152.466 Y133.18 E143.36497
G1 X151.975 Y133.903 E143.46985
G1 X151.198 Y134.889 E143.62049
G1 X150.731 Y135.417 E143.70508
G1 X150.084 Y135.985 E143.80839
G1 X149.07 Y136.757 E143.96132
G1 X148.486 Y137.151 E144.04586
G1 X147.708 Y137.543 E144.1504
G1 X146.535 Y138.034 E144.303
G1 X145.871 Y138.269 E144.38752
G1 X145.016 Y138.453 E144.49247
G1 X143.767 Y138.631 E144.64386
G1 X142.888 Y138.693 E144.7496
G1 X97.268 Y138.664 E150.22401
G1 X96.565 Y138.624 E150.3085
G1 X96.009 Y138.534 E150.37609
G1 X95.072 Y138.339 E150.49094
G1 X94.392 Y138.157 E150.57541
G1 X93.873 Y137.959 E150.64207
G1 X92.856 Y137.519 E150.77504
G1 X92.227 Y137.204 E150.85946
G1 X91.638 Y136.818 E150.94396
G1 X91.096 Y136.369 E151.02842
G1 X90.608 Y135.861 E151.11295
G1 X90.181 Y135.301 E151.19746
G1 X89.821 Y134.697 E151.28184
G1 X89.531 Y134.055 E151.36637
G1 X89.316 Y133.385 E151.45081
G1 X89.179 Y132.694 E151.53534
G1 X89.118 Y131.829 E151.6394
G1 X89.118 Y72.159 E158.7998
G1 X89.158 Y71.456 E158.8843
G1 X89.277 Y70.762 E158.96879
G1 X89.475 Y70.087 E159.05321
G1 X89.747 Y69.438 E159.13765
G1 X90.092 Y68.824 E159.22217
G1 X90.503 Y68.253 E159.30659
G0 F2400 X90.9 Y68.401
G1 F1800 X91.371 Y67.91 E159.38824
G1 X91.896 Y67.476 E159.46997
G1 X92.468 Y67.107 E159.55166
G1 X93.182 Y66.767 E159.64656
G1 X94.505 Y66.243 E159.81732
G1 X95.152 Y66.029 E159.89909
G1 X95.811 Y65.895 E159.97979
G1 X96.745 Y65.76 E160.09304
G1 X97.574 Y65.7 E160.19278
G1 X142.89 Y65.695 E165.6307
G1 X143.708 Y65.753 E165.7291
G1 X144.959 Y65.931 E165.88073
G1 X145.626 Y66.066 E165.9624
G1 X146.378 Y66.321 E166.05768
G1 X147.546 Y66.809 E166.20959
G1 X148.158 Y67.108 E166.29132
G1 X148.823 Y67.546 E166.38688
G1 X149.84 Y68.32 E166.54024
G1 X150.356 Y68.763 E166.62185
G1 X150.883 Y69.345 E166.71607
G1 X151.66 Y70.331 E166.86671
G1 X152.049 Y70.89 E166.94843
G1 X152.488 Y71.764 E167.0658
G1 X153.08 Y73.242 E167.25686
G1 X153.296 Y73.888 E167.3386
G1 X153.451 Y74.68 E167.43544
G1 X153.567 Y75.608 E167.54767
G1 X153.612 Y76.329 E167.63435
G1 X153.593 Y127.977 E173.83212
G1 X153.553 Y128.657 E173.91386
G1 X153.487 Y129.08 E173.96523
G1 X153.306 Y130.013 E174.07928
G1 X153.137 Y130.672 E174.16092
G1 X152.925 Y131.234 E174.233
G1 X152.418 Y132.392 E174.38469
G1 X152.109 Y132.999 E174.46643
G1 X151.661 Y133.656 E174.56185
G1 X150.884 Y134.642 E174.71249
G1 X150.431 Y135.151 E174.79426
G1 X149.841 Y135.667 E174.88832
G1 X148.827 Y136.439 E175.04125
G1 X148.262 Y136.819 E175.12296
G1 X147.554 Y137.174 E175.218
G1 X146.381 Y137.665 E175.37059
G1 X145.738 Y137.891 E175.45238
G1 X144.959 Y138.057 E175.54796
G1 X143.71 Y138.235 E175.69935
G1 X142.888 Y138.293 E175.79824
G1 X97.268 Y138.264 E181.27264
G1 X96.589 Y138.224 E181.35426
G1 X96.09 Y138.142 E181.41494
G1 X95.153 Y137.947 E181.52979
G1 X94.496 Y137.77 E181.61144
G1 X94.032 Y137.592 E181.67108
G1 X93.015 Y137.152 E181.80405
G1 X92.407 Y136.846 E181.88573
G1 X91.839 Y136.47 E181.96747
G1 X91.319 Y136.03 E182.04921
G1 X90.854 Y135.533 E182.13089
G1 X90.451 Y134.984 E182.21261
G1 X90.115 Y134.392 E182.2943
G1 X89.85 Y133.765 E182.37598
G1 X89.661 Y133.11 E182.45779
G1 X89.55 Y132.439 E182.5394
G1 X89.518 Y131.829 E182.6127
G1 X89.518 Y72.159 E189.7731
G1 X89.558 Y71.479 E189.85484
G1 X89.677 Y70.809 E189.9365
G1 X89.874 Y70.157 E190.01824
G1 X90.146 Y69.533 E190.09992
G1 X90.49 Y68.945 E190.18167
G1 X90.9 Y68.401 E190.26341
G0 F2400 X91.296 Y68.556
G1 F1800 X91.763 Y68.094 E190.34224
G1 X92.283 Y67.693 E190.42104
G1 X92.847 Y67.357 E190.49982
G1 X93.33 Y67.138 E190.56346
G1 X94.653 Y66.614 E190.73422
G1 X95.277 Y66.41 E190.813
G1 X95.869 Y66.291 E190.88546
G1 X96.803 Y66.156 E190.9987
G1 X97.574 Y66.1 E191.09147
G1 X142.89 Y66.095 E196.52939
G1 X143.652 Y66.149 E196.62106
G1 X144.903 Y66.327 E196.77269
G1 X145.546 Y66.459 E196.85146
G1 X146.224 Y66.69 E196.93741
G1 X147.392 Y67.178 E197.08931
G1 X147.981 Y67.468 E197.1681
G1 X148.58 Y67.864 E197.25426
G1 X149.597 Y68.638 E197.40763
G1 X150.095 Y69.067 E197.4865
G1 X150.568 Y69.593 E197.57139
G1 X151.345 Y70.579 E197.72203
G1 X151.72 Y71.118 E197.80083
G1 X152.117 Y71.913 E197.90746
G1 X152.709 Y73.391 E198.09852
G1 X152.916 Y74.015 E198.17741
G1 X153.054 Y74.729 E198.26468
G1 X153.17 Y75.657 E198.3769
G1 X153.212 Y76.329 E198.4577
G1 X153.193 Y127.977 E204.65546
G1 X153.153 Y128.633 E204.73433
G1 X153.094 Y129.003 E204.77929
G1 X152.913 Y129.936 E204.89334
G1 X152.749 Y130.573 E204.97227
G1 X152.559 Y131.074 E205.03657
G1 X152.052 Y132.232 E205.18826
G1 X151.752 Y132.816 E205.26705
G1 X151.346 Y133.408 E205.35319
G1 X150.569 Y134.394 E205.50383
G1 X150.132 Y134.885 E205.58271
G1 X149.599 Y135.348 E205.66743
G1 X148.585 Y136.12 E205.82036
G1 X148.039 Y136.486 E205.89924
G1 X147.399 Y136.805 E205.98505
G1 X146.226 Y137.296 E206.13765
G1 X145.606 Y137.513 E206.21647
G1 X144.903 Y137.661 E206.30268
G1 X143.654 Y137.839 E206.45408
G1 X142.889 Y137.893 E206.54611
G1 X97.269 Y137.864 E212.02051
G1 X96.613 Y137.824 E212.09937
G1 X96.172 Y137.751 E212.15301
G1 X95.235 Y137.556 E212.26786
G1 X94.601 Y137.383 E212.34672
G1 X94.191 Y137.225 E212.39945
G1 X93.174 Y136.785 E212.53242
G1 X92.588 Y136.488 E212.61126
G1 X92.042 Y136.122 E212.69014
G1 X91.545 Y135.692 E212.769
G1 X91.104 Y135.206 E212.84775
G1 X90.725 Y134.669 E212.92662
G1 X90.414 Y134.09 E213.00549
G1 X90.176 Y133.478 E213.08429
G1 X90.014 Y132.841 E213.16316
