;FLAVOR:UltiGCode
;TIME:5137
;MATERIAL:8532
;MATERIAL2:0
;NOZZLE_DIAMETER:0.4
;Generated with Cura_SteamEngine 3.0.4
M82 ; absolute extrusion mode

;LAYER_COUNT:22
;LAYER:0
M107
G0 F6000 X79.777 Y71.639 Z0.3
;TYPE:SKIRT
G1 F1500 X80.484 Y70.99 E0.10077
G1 X81.222 Y70.391 E0.20057
G1 X81.863 Y69.922 E0.28397
G1 X82.683 Y69.451 E0.38326
G1 X83.817 Y68.888 E0.5162
G1 X84.545 Y68.572 E0.59953
G1 X85.3 Y68.33 E0.68278
G1 X85.708 Y68.234 E0.72679
G1 X86.947 Y67.975 E0.85969
G1 X87.731 Y67.852 E0.94302
G1 X88.556 Y67.808 E1.02977
G1 X123.189 Y67.798 E4.66623
G1 X124.315 Y67.879 E4.78477
G1 X125.258 Y68.015 E4.88481
G1 X126.037 Y68.167 E4.96815
G1 X126.471 Y68.289 E5.01548
G1 X127.076 Y68.477 E5.082
G1 X127.821 Y68.75 E5.16532
G1 X128.238 Y68.942 E5.21352
G1 X129.089 Y69.364 E5.31326
G1 X129.781 Y69.752 E5.39656
G1 X130.55 Y70.302 E5.49583
G1 X131.533 Y71.099 E5.62871
G1 X132.123 Y71.629 E5.71198
G1 X132.657 Y72.216 E5.79531
G1 X132.918 Y72.552 E5.83998
G1 X133.667 Y73.571 E5.97277
G1 X134.104 Y74.233 E6.05606
G1 X134.473 Y74.936 E6.13942
G1 X134.718 Y75.531 E6.20699
G1 X135.261 Y77.016 E6.37301
G1 X135.496 Y77.774 E6.45634
G1 X135.653 Y78.551 E6.53957
G1 X135.705 Y78.983 E6.58526
G1 X135.794 Y79.93 E6.68513
G1 X135.829 Y80.668 E6.76271
G1 X135.819 Y157.985 E14.88099
G1 X135.779 Y158.777 E14.96426
G1 X135.72 Y159.228 E15.01202
G1 X135.57 Y160.166 E15.11176
G1 X135.406 Y160.942 E15.19504
G1 X135.104 Y161.85 E15.29551
G1 X134.633 Y163.026 E15.42853
G1 X134.302 Y163.747 E15.51183
G1 X133.955 Y164.345 E15.58443
G1 X133.613 Y164.879 E15.65101
G1 X133.151 Y165.525 E15.7344
G1 X132.682 Y166.065 E15.8095
G1 X131.809 Y166.981 E15.94237
G1 X131.233 Y167.527 E16.0257
G1 X130.605 Y168.013 E16.10908
G1 X130.048 Y168.367 E16.17838
G1 X128.679 Y169.158 E16.34439
G1 X127.973 Y169.519 E16.42765
G1 X127.076 Y169.859 E16.52837
G1 X126.471 Y170.047 E16.5949
G1 X125.702 Y170.244 E16.67825
G1 X125.25 Y170.323 E16.72643
G1 X124.307 Y170.458 E16.82645
G1 X123.181 Y170.537 E16.94497
G1 X88.234 Y170.492 E20.61441
G1 X87.441 Y170.451 E20.69779
G1 X86.861 Y170.37 E20.75928
G1 X86.547 Y170.314 E20.79277
G1 X85.587 Y170.079 E20.89654
G1 X84.679 Y169.796 E20.99641
G1 X83.934 Y169.522 E21.07976
G1 X83.085 Y169.098 E21.1794
G1 X81.99 Y168.466 E21.31215
G1 X81.324 Y168.036 E21.39539
G1 X80.586 Y167.433 E21.49546
G1 X79.886 Y166.787 E21.59547
G1 X79.331 Y166.22 E21.67878
G1 X78.741 Y165.467 E21.77923
G1 X78.024 Y164.426 E21.91195
G1 X77.608 Y163.751 E21.9952
G1 X77.261 Y163.037 E22.07856
G1 X77.112 Y162.657 E22.12142
G1 X76.678 Y161.467 E22.25442
G1 X76.444 Y160.709 E22.33771
G1 X76.263 Y159.756 E22.43957
G1 X76.144 Y158.814 E22.53926
G1 X76.082 Y157.825 E22.64331
G1 X76.102 Y80.191 E30.79488
G1 X76.142 Y79.399 E30.87815
G1 X76.244 Y78.703 E30.95201
G1 X76.424 Y77.769 E31.05188
G1 X76.614 Y76.998 E31.13526
G1 X76.942 Y76.103 E31.23535
G1 X77.449 Y74.944 E31.36818
G1 X77.803 Y74.234 E31.45148
G1 X78.227 Y73.563 E31.53482
G1 X78.473 Y73.233 E31.57804
G1 X79.256 Y72.237 E31.71107
G1 X79.777 Y71.639 E31.79434
G0 F6000 X80.041 Y71.869
G1 F1500 X80.705 Y71.261 E31.88888
G1 X81.443 Y70.662 E31.98868
G1 X82.069 Y70.205 E32.07006
G1 X82.839 Y69.765 E32.16318
G1 X83.973 Y69.202 E32.29612
G1 X84.684 Y68.893 E32.37752
G1 X85.779 Y68.576 E32.49721
G1 X87.018 Y68.317 E32.63012
G1 X87.785 Y68.198 E32.71162
G1 X88.556 Y68.158 E32.79268
G1 X123.189 Y68.148 E36.42915
G1 X124.265 Y68.225 E36.54242
G1 X125.208 Y68.361 E36.64246
G1 X125.969 Y68.511 E36.7239
G1 X126.367 Y68.623 E36.76731
G1 X126.972 Y68.811 E36.83383
G1 X127.7 Y69.079 E36.91529
G1 X128.082 Y69.255 E36.95945
G1 X128.933 Y69.677 E37.05919
G1 X129.609 Y70.057 E37.14061
G1 X130.329 Y70.574 E37.23369
G1 X131.312 Y71.371 E37.36656
G1 X131.889 Y71.89 E37.44805
G1 X132.636 Y72.759 E37.56837
G1 X133.385 Y73.778 E37.70116
G1 X133.812 Y74.426 E37.78265
G1 X134.169 Y75.114 E37.86403
G1 X134.389 Y75.651 E37.92497
G1 X134.932 Y77.136 E38.09099
G1 X135.161 Y77.877 E38.17243
G1 X135.357 Y79.016 E38.29378
G1 X135.446 Y79.963 E38.39365
G1 X135.479 Y80.668 E38.46776
G1 X135.469 Y157.985 E46.58604
G1 X135.429 Y158.76 E46.66753
G1 X135.375 Y159.172 E46.71116
G1 X135.225 Y160.11 E46.8109
G1 X135.063 Y160.869 E46.89239
G1 X134.78 Y161.72 E46.98655
G1 X134.309 Y162.896 E47.11957
G1 X133.983 Y163.6 E47.20103
G1 X133.66 Y164.156 E47.26855
G1 X133.318 Y164.69 E47.33513
G1 X132.866 Y165.321 E47.41663
G1 X132.428 Y165.824 E47.48666
G1 X131.555 Y166.74 E47.61953
G1 X130.992 Y167.273 E47.70093
G1 X130.377 Y167.745 E47.78233
G1 X129.873 Y168.064 E47.84496
G1 X128.504 Y168.855 E48.01097
G1 X127.813 Y169.207 E48.0924
G1 X126.972 Y169.525 E48.18681
G1 X126.367 Y169.713 E48.25333
G1 X125.615 Y169.905 E48.33482
G1 X125.2 Y169.976 E48.37903
G1 X124.257 Y170.111 E48.47906
G1 X123.181 Y170.187 E48.59232
G1 X88.234 Y170.142 E52.26175
G1 X87.46 Y170.101 E52.34314
G1 X86.923 Y170.025 E52.40009
G1 X86.609 Y169.969 E52.43358
G1 X85.691 Y169.745 E52.53279
G1 X84.783 Y169.462 E52.63266
G1 X84.055 Y169.193 E52.71415
G1 X83.26 Y168.795 E52.8075
G1 X82.165 Y168.163 E52.94025
G1 X81.514 Y167.742 E53.02165
G1 X80.824 Y167.176 E53.11536
G1 X80.124 Y166.53 E53.21538
G1 X79.581 Y165.975 E53.2969
G1 X79.03 Y165.268 E53.39102
G1 X78.313 Y164.227 E53.52374
G1 X77.906 Y163.567 E53.60516
G1 X77.44 Y162.537 E53.72387
G1 X77.006 Y161.347 E53.85687
G1 X76.779 Y160.606 E53.93824
G1 X76.61 Y159.712 E54.03377
G1 X76.491 Y158.77 E54.13347
G1 X76.432 Y157.825 E54.23289
G1 X76.452 Y80.191 E62.38446
G1 X76.492 Y79.416 E62.46594
G1 X76.588 Y78.769 E62.53462
G1 X76.768 Y77.835 E62.63449
G1 X76.954 Y77.082 E62.71593
G1 X77.263 Y76.243 E62.80981
G1 X77.77 Y75.084 E62.94264
G1 X78.117 Y74.391 E63.02402
G1 X78.748 Y73.449 E63.14307
G1 X79.531 Y72.453 E63.2761
G1 X80.041 Y71.869 E63.35751
G0 F6000 X80.305 Y72.1
G1 F1500 X80.925 Y71.533 E63.44573
G1 X81.663 Y70.934 E63.54553
G1 X82.276 Y70.488 E63.62513
G1 X82.994 Y70.078 E63.71194
G1 X84.128 Y69.515 E63.84488
G1 X84.824 Y69.215 E63.92446
G1 X85.851 Y68.919 E64.03669
G1 X87.09 Y68.66 E64.16959
G1 X87.838 Y68.544 E64.24907
G1 X88.556 Y68.508 E64.32456
G1 X123.189 Y68.498 E67.96102
G1 X124.215 Y68.571 E68.06902
G1 X125.158 Y68.707 E68.16906
G1 X126.263 Y68.957 E68.28802
G1 X126.868 Y69.145 E68.35454
G1 X127.579 Y69.408 E68.43414
G1 X127.927 Y69.569 E68.4744
G1 X128.778 Y69.991 E68.57414
G1 X129.437 Y70.363 E68.6536
G1 X130.109 Y70.846 E68.74049
G1 X131.092 Y71.643 E68.87337
G1 X131.654 Y72.15 E68.95284
G1 X132.354 Y72.967 E69.06581
G1 X133.103 Y73.986 E69.1986
G1 X133.519 Y74.619 E69.27813
G1 X133.866 Y75.292 E69.35764
G1 X134.061 Y75.771 E69.41194
G1 X134.604 Y77.256 E69.57796
G1 X134.826 Y77.98 E69.65748
G1 X135.009 Y79.049 E69.77135
G1 X135.098 Y79.996 E69.87123
G1 X135.129 Y80.668 E69.94186
G1 X135.119 Y157.985 E78.06015
G1 X135.079 Y158.741 E78.13964
G1 X135.029 Y159.117 E78.17947
G1 X134.879 Y160.055 E78.27921
G1 X134.72 Y160.796 E78.35878
G1 X134.455 Y161.59 E78.44667
G1 X133.984 Y162.766 E78.57969
G1 X133.665 Y163.453 E78.65922
G1 X133.365 Y163.968 E78.7218
G1 X133.023 Y164.502 E78.78839
G1 X132.582 Y165.117 E78.86785
G1 X132.175 Y165.582 E78.93273
G1 X131.302 Y166.498 E79.0656
G1 X130.751 Y167.018 E79.14515
G1 X130.149 Y167.477 E79.22464
G1 X129.698 Y167.761 E79.2806
G1 X128.329 Y168.552 E79.44661
G1 X127.654 Y168.895 E79.52611
G1 X126.868 Y169.191 E79.6143
G1 X126.263 Y169.379 E79.68082
G1 X125.529 Y169.565 E79.76033
G1 X125.151 Y169.63 E79.8006
G1 X124.208 Y169.765 E79.90063
G1 X123.182 Y169.837 E80.00862
G1 X88.235 Y169.792 E83.67806
G1 X87.479 Y169.751 E83.75756
G1 X86.984 Y169.681 E83.81005
G1 X86.67 Y169.625 E83.84354
G1 X85.795 Y169.411 E83.93812
G1 X84.887 Y169.128 E84.03798
G1 X84.177 Y168.865 E84.11748
G1 X83.435 Y168.492 E84.20468
G1 X82.34 Y167.86 E84.33744
G1 X81.705 Y167.448 E84.41692
G1 X81.061 Y166.919 E84.50442
G1 X80.361 Y166.273 E84.60444
G1 X79.832 Y165.73 E84.68404
G1 X79.318 Y165.07 E84.77187
G1 X78.601 Y164.029 E84.9046
G1 X78.205 Y163.383 E84.98416
G1 X77.769 Y162.417 E85.09544
G1 X77.335 Y161.227 E85.22844
G1 X77.114 Y160.503 E85.30792
G1 X76.958 Y159.668 E85.39712
G1 X76.839 Y158.726 E85.49681
G1 X76.782 Y157.825 E85.59161
G1 X76.802 Y80.191 E93.74318
G1 X76.842 Y79.435 E93.82267
G1 X76.932 Y78.835 E93.88637
G1 X77.112 Y77.901 E93.98625
G1 X77.294 Y77.166 E94.06575
G1 X77.583 Y76.383 E94.15339
G1 X78.09 Y75.224 E94.28622
G1 X78.43 Y74.548 E94.36567
G1 X79.023 Y73.666 E94.47727
G1 X79.806 Y72.67 E94.61029
G1 X80.305 Y72.1 E94.68984
G0 F6000 X80.569 Y72.331
G1 F1500 X81.146 Y71.805 E94.77182
G1 X81.884 Y71.206 E94.87162
G1 X82.482 Y70.772 E94.9492
G1 X83.15 Y70.392 E95.0299
G1 X84.284 Y69.829 E95.16284
G1 X84.962 Y69.537 E95.24035
G1 X85.922 Y69.261 E95.34523
G1 X87.161 Y69.002 E95.47814
G1 X87.892 Y68.891 E95.55577
G1 X88.556 Y68.858 E95.62558
G1 X123.189 Y68.848 E99.26204
G1 X124.165 Y68.918 E99.36479
G1 X125.108 Y69.054 E99.46483
G1 X126.159 Y69.291 E99.57795
G1 X126.764 Y69.479 E99.64447
G1 X127.771 Y69.883 E99.7584
G1 X128.622 Y70.305 E99.85814
G1 X129.265 Y70.668 E99.93567
G1 X129.888 Y71.118 E100.01636
G1 X130.871 Y71.915 E100.14924
G1 X131.419 Y72.41 E100.22678
G1 X132.072 Y73.174 E100.33231
G1 X132.821 Y74.193 E100.4651
G1 X133.226 Y74.811 E100.54268
G1 X133.561 Y75.469 E100.62021
G1 X133.732 Y75.891 E100.66802
G1 X134.275 Y77.376 E100.83404
G1 X134.491 Y78.083 E100.91167
G1 X134.66 Y79.081 E101.01795
G1 X134.749 Y80.028 E101.11782
G1 X134.779 Y80.668 E101.18509
G1 X134.769 Y157.985 E109.30338
G1 X134.683 Y159.062 E109.41682
G1 X134.533 Y160 E109.51657
G1 X134.377 Y160.722 E109.59412
G1 X134.13 Y161.46 E109.67584
G1 X133.659 Y162.636 E109.80886
G1 X133.347 Y163.305 E109.88636
G1 X133.07 Y163.779 E109.94401
G1 X132.728 Y164.313 E110.01059
G1 X132.297 Y164.912 E110.08808
G1 X131.922 Y165.341 E110.14791
G1 X131.049 Y166.257 E110.28077
G1 X130.511 Y166.763 E110.35832
G1 X129.921 Y167.208 E110.43591
G1 X129.522 Y167.457 E110.4853
G1 X128.153 Y168.248 E110.65131
G1 X127.495 Y168.583 E110.72884
G1 X126.764 Y168.857 E110.81081
G1 X126.159 Y169.045 E110.87733
G1 X125.101 Y169.283 E110.9912
G1 X124.158 Y169.418 E111.09122
G1 X123.182 Y169.487 E111.19396
G1 X88.235 Y169.442 E114.8634
G1 X87.498 Y169.401 E114.9409
G1 X87.046 Y169.336 E114.98885
G1 X86.732 Y169.28 E115.02234
G1 X85.899 Y169.077 E115.11237
G1 X84.991 Y168.794 E115.21223
G1 X84.299 Y168.536 E115.28977
G1 X83.61 Y168.189 E115.37078
G1 X82.515 Y167.557 E115.50353
G1 X81.896 Y167.154 E115.58108
G1 X81.298 Y166.662 E115.66239
G1 X80.598 Y166.016 E115.76241
G1 X80.083 Y165.486 E115.84
G1 X79.606 Y164.871 E115.92173
G1 X78.889 Y163.83 E116.05445
G1 X78.504 Y163.2 E116.13197
G1 X78.098 Y162.297 E116.23593
G1 X77.664 Y161.107 E116.36893
G1 X77.449 Y160.401 E116.44642
G1 X77.305 Y159.624 E116.5294
G1 X77.186 Y158.682 E116.62909
G1 X77.132 Y157.825 E116.71926
G1 X77.152 Y80.191 E124.87083
G1 X77.192 Y79.454 E124.94833
G1 X77.275 Y78.901 E125.00704
G1 X77.455 Y77.967 E125.10692
G1 X77.634 Y77.251 E125.18441
G1 X77.904 Y76.524 E125.26584
G1 X78.411 Y75.365 E125.39867
G1 X78.743 Y74.705 E125.47624
G1 X79.298 Y73.882 E125.58047
G1 X80.081 Y72.886 E125.7135
G1 X80.569 Y72.331 E125.7911
G0 F6000 X80.832 Y72.562
G1 F1500 X81.366 Y72.077 E125.86684
G1 X82.104 Y71.478 E125.96664
G1 X82.687 Y71.056 E126.04221
G1 X83.306 Y70.705 E126.11693
G1 X84.44 Y70.142 E126.24987
G1 X85.101 Y69.859 E126.32536
G1 X85.994 Y69.604 E126.42288
G1 X87.233 Y69.345 E126.55578
G1 X87.944 Y69.237 E126.6313
G1 X88.556 Y69.208 E126.69563
G1 X123.189 Y69.198 E130.33209
G1 X124.115 Y69.264 E130.42957
G1 X125.058 Y69.4 E130.52961
G1 X126.055 Y69.626 E130.63695
G1 X126.66 Y69.814 E130.70347
G1 X127.616 Y70.196 E130.81157
G1 X128.467 Y70.618 E130.91131
G1 X129.092 Y70.973 E130.98678
G1 X129.668 Y71.389 E131.06138
G1 X130.651 Y72.186 E131.19426
G1 X131.184 Y72.67 E131.26986
G1 X131.79 Y73.381 E131.36795
G1 X132.539 Y74.4 E131.50074
G1 X132.932 Y75.003 E131.57631
G1 X133.256 Y75.645 E131.65182
G1 X133.403 Y76.011 E131.69324
G1 X133.946 Y77.496 E131.85926
G1 X134.155 Y78.185 E131.93486
G1 X134.312 Y79.114 E132.03379
G1 X134.401 Y80.061 E132.13366
G1 X134.429 Y80.668 E132.19746
G1 X134.419 Y157.985 E140.31575
G1 X134.338 Y159.006 E140.42329
G1 X134.188 Y159.944 E140.52303
G1 X134.035 Y160.647 E140.59857
G1 X133.805 Y161.329 E140.67415
G1 X133.334 Y162.505 E140.80716
G1 X133.03 Y163.157 E140.8827
G1 X132.776 Y163.59 E140.93541
G1 X132.434 Y164.124 E141.00199
G1 X132.013 Y164.707 E141.0775
G1 X131.668 Y165.099 E141.13233
G1 X130.795 Y166.015 E141.26519
G1 X130.271 Y166.508 E141.34074
G1 X129.695 Y166.939 E141.41627
G1 X129.347 Y167.154 E141.45922
G1 X127.978 Y167.945 E141.62524
G1 X127.336 Y168.27 E141.70079
G1 X126.66 Y168.522 E141.77655
G1 X126.055 Y168.71 E141.84307
G1 X125.052 Y168.937 E141.95105
G1 X124.109 Y169.072 E142.05107
G1 X123.183 Y169.137 E142.14854
G1 X88.236 Y169.092 E145.81798
G1 X87.517 Y169.051 E145.8936
G1 X87.107 Y168.991 E145.9371
G1 X86.793 Y168.935 E145.97059
G1 X86.003 Y168.743 E146.05596
G1 X85.095 Y168.46 E146.15582
G1 X84.421 Y168.208 E146.23138
G1 X83.785 Y167.886 E146.30623
G1 X82.69 Y167.254 E146.43898
G1 X82.088 Y166.86 E146.51452
G1 X81.536 Y166.404 E146.5897
G1 X80.836 Y165.758 E146.68972
G1 X80.335 Y165.242 E146.76524
G1 X79.894 Y164.673 E146.84082
G1 X79.177 Y163.632 E146.97355
G1 X78.803 Y163.018 E147.04904
G1 X78.427 Y162.178 E147.14567
G1 X77.993 Y160.988 E147.27867
G1 X77.784 Y160.299 E147.35427
G1 X77.652 Y159.581 E147.43092
G1 X77.533 Y158.639 E147.53062
G1 X77.482 Y157.825 E147.61626
G1 X77.502 Y80.191 E155.76783
G1 X77.542 Y79.473 E155.84333
G1 X77.619 Y78.968 E155.89697
G1 X77.799 Y78.034 E155.99685
G1 X77.974 Y77.336 E156.0724
G1 X78.225 Y76.664 E156.14773
G1 X78.732 Y75.505 E156.28055
G1 X79.056 Y74.863 E156.35606
G1 X79.574 Y74.098 E156.45307
G1 X80.357 Y73.102 E156.5861
G1 X80.832 Y72.562 E156.66161
G0 F6000 X81.095 Y72.794
G1 F1500 X81.587 Y72.348 E156.73134
G1 X82.325 Y71.749 E156.83114
G1 X82.893 Y71.34 E156.90463
G1 X83.461 Y71.019 E156.97314
G1 X84.595 Y70.456 E157.10608
G1 X85.239 Y70.181 E157.1796
G1 X86.066 Y69.947 E157.26985
G1 X87.305 Y69.688 E157.40275
G1 X87.997 Y69.584 E157.47623
G1 X88.556 Y69.558 E157.53499
G1 X123.189 Y69.548 E161.17145
G1 X124.065 Y69.611 E161.26367
G1 X125.008 Y69.747 E161.36371
G1 X125.952 Y69.96 E161.46532
G1 X126.557 Y70.148 E161.53184
G1 X127.46 Y70.51 E161.63399
G1 X128.311 Y70.932 E161.73373
G1 X128.919 Y71.278 E161.80718
G1 X129.447 Y71.661 E161.87567
G1 X130.43 Y72.458 E162.00855
G1 X130.948 Y72.929 E162.08206
G1 X131.508 Y73.588 E162.17287
G1 X132.257 Y74.607 E162.30566
G1 X132.639 Y75.194 E162.3792
G1 X133.074 Y76.132 E162.48776
G1 X133.617 Y77.617 E162.65378
G1 X133.82 Y78.286 E162.72719
G1 X133.963 Y79.147 E162.81883
G1 X134.052 Y80.094 E162.91871
G1 X134.079 Y80.668 E162.97904
G1 X134.069 Y157.985 E171.09733
G1 X133.992 Y158.951 E171.19908
G1 X133.842 Y159.889 E171.29882
G1 X133.692 Y160.573 E171.37235
G1 X133.48 Y161.199 E171.44175
G1 X133.009 Y162.375 E171.57476
G1 X132.712 Y163.009 E171.64827
G1 X132.481 Y163.401 E171.69605
G1 X132.139 Y163.935 E171.76263
G1 X131.728 Y164.502 E171.83616
G1 X131.415 Y164.858 E171.88594
G1 X130.542 Y165.774 E172.0188
G1 X130.031 Y166.252 E172.09227
G1 X129.172 Y166.851 E172.20223
G1 X127.803 Y167.642 E172.36824
G1 X127.178 Y167.957 E172.44173
G1 X126.557 Y168.188 E172.5113
G1 X125.952 Y168.376 E172.57782
G1 X125.002 Y168.59 E172.68007
G1 X124.059 Y168.725 E172.7801
G1 X123.183 Y168.787 E172.87231
G1 X88.236 Y168.742 E176.54175
G1 X87.538 Y168.701 E176.61516
G1 X87.169 Y168.647 E176.65432
G1 X86.855 Y168.591 E176.68781
G1 X86.107 Y168.409 E176.76864
G1 X85.199 Y168.126 E176.86851
G1 X84.544 Y167.88 E176.94197
G1 X83.96 Y167.583 E177.01077
G1 X82.865 Y166.951 E177.14352
G1 X82.28 Y166.567 E177.21699
G1 X81.773 Y166.147 E177.28612
G1 X81.073 Y165.501 E177.38614
G1 X80.587 Y164.998 E177.45958
G1 X80.183 Y164.474 E177.52905
G1 X79.466 Y163.433 E177.66177
G1 X79.102 Y162.835 E177.73528
G1 X78.756 Y162.058 E177.82459
G1 X78.322 Y160.868 E177.95759
G1 X78.12 Y160.198 E178.03107
G1 X77.999 Y159.537 E178.10163
G1 X77.88 Y158.595 E178.20132
